usr/share/icons/biglinux-icons-material/24/devices/audio-radio.svg

<svg width="24" height="24" version="1.1" xmlns="http://www.w3.org/2000/svg">
 <style id="current-color-scheme" type="text/css">.ColorScheme-Text {
            color:#363636;
        }</style>
 <g class="ColorScheme-Text" transform="translate(3.9952 4)" fill="currentColor">
  <path d="m3.8555 1.2598c-0.23419 0.032324-0.43672 0.19992-0.50195 0.44336-0.086971 0.32458 0.10511 0.65522 0.42969 0.74219l5.8008 1.5547h-7.5742c-1.108 0-2 0.892-2 2v7c0 1.108 0.892 2 2 2h11.99c1.108 0 2-0.892 2-2v-7c0-1.108-0.892-2-2-2h-0.16016c-0.076393-0.087069-0.16831-0.161-0.28906-0.19336l-9.4531-2.5332c-0.081145-0.021743-0.16412-0.024446-0.24219-0.013672zm-1.8555 3.7402h12.01c0.554 0 1 0.446 1 1v7c0 0.554-0.446 1-1 1h-12.01c-0.554 0-1-0.446-1-1v-7c0-0.554 0.446-1 1-1zm0.00977 2v1h4.9903v-1zm9.4902 0c-1.3807 0-2.5 1.1193-2.5 2.5s1.1193 2.5 2.5 2.5 2.5-1.1193 2.5-2.5-1.1193-2.5-2.5-2.5zm0 1c0.82843 0 1.5 0.67157 1.5 1.5s-0.67157 1.5-1.5 1.5-1.5-0.67157-1.5-1.5 0.67157-1.5 1.5-1.5zm-9.4902 1v1h4.9903v-1zm0 2v1h4.9903v-1z"/>
 </g>
</svg>

<svg xmlns="http://www.w3.org/2000/svg" width="24" height="24"><path fill="currentColor" d="M3.856 1.26a.605.605 0 0 0-.072 1.186L9.583 4H2.01c-1.108 0-2 .892-2 2v7c0 1.108.892 2 2 2H14c1.108 0 2-.892 2-2V6c0-1.108-.892-2-2-2h-.16a.588.588 0 0 0-.29-.193L4.099 1.273a.613.613 0 0 0-.243-.013zM2 5h12.01c.554 0 1 .446 1 1v7c0 .554-.446 1-1 1H2c-.554 0-1-.446-1-1V6c0-.554.446-1 1-1zm.01 2v1H7V7zm9.49 0a2.5 2.5 0 1 0 0 5 2.5 2.5 0 0 0 0-5zm0 1a1.5 1.5 0 1 1 0 3 1.5 1.5 0 0 1 0-3zM2.01 9v1H7V9zm0 2v1H7v-1z" style="color:#dedede" transform="translate(3.995 4)"/></svg>
